X: 1
T: Miss Wilhelmina McDowal's Reel - of Arndill
C: William Marshall
R: reel
Z: 2013 John Chambers <jc:trillian.mit.edu>
M: C|
L: 1/8
K: C
e/f/ |\
"C"gcac gcac | "C"gcec "G7"d2de/f/ |\
"C"gcac gcec | "G7"BGAB "C"c2c :|
|: G |\
"C"c2GE cGEc | "C"GcEc "G7"d2de |\
[1 "C"c2GE "F"cagf | "C"ec"G7"dB "C"c2cG :|\
[2 "C"ce"Dm"df "C"eg"F"fa | "C"ec"G7"dB "C"c2c :|
